!!!COM: Scriabin, Alexander
!!!OTL@@FR: Prélude en sol bémol majeur
!!!OTL@@EN: Prelude in Gb Major
!!!OPR@@FR: 24 Préludes
!!!OPR@@EN: 24 Preludes
!!!OPS: 11
!!!ONM: 13
!!!ODT: 1895
!!!AGN: Prelude
**kern	**kern	**dynam
*staff2	*staff1	*staff1/2
*Ipiano	*Ipiano	*
*clefF4	*clefG2	*
*k[b-e-a-d-g-c-]	*k[b-e-a-d-g-c-]	*
*G-:	*G-:	*
*M3/4	*M3/4	*
=1	=1	=1
8r	2B- 2g- 2b-	p
8Cn	.	.
8D-L	.	.
8F	.	.
8G-	4B- 4g- 4b-	<
8E-J	.	(
=2	=2	=2
*	*^	*
*	*	*^	*
8AA-L	2.e-\	[2g-	4.dd-	(
8E-	.	.	.	[
8A-	.	.	.	.
8E-	.	.	8cc-X	.
8d-	.	8g-L]	8b-L	.
8c-XJ	.	8a-J	8a-J	.
*	*	*v	*v	*
=3	=3	=3	=3
8c-L	2a-	2ee-	.
8B-	.	.	.
8d-	.	.	.
8F	.	.	.
8c-	4a- 4ee-	4ff	<
8d-J	.	.	(
=4	=4	=4	=4
*	*	*^	*
8c-L	2a-\	4.ee-	2aa-	(
8B-	.	.	.	[
8g-	.	.	.	.
8f	.	8ddn	.	.
8e-	4f\	8cc-L	4a-	.
8dnJ	.	8b-J	.	.
*	*	*v	*v	*
=5	=5	=5	=5
4d-X	2e- 2gn	8b-L	.
.	.	8cc-J	.
8c-L	.	4ee-	.
8B-J	.	.	.
8A-L	4e- 4a-	4cc-	.
8G-XJ	.	.	.
=6	=6	=6	=6
8G-L	4d- 4a-	8a-L	.
8FJ	.	8b-J	.
8E-L	2B- 2g-	4dd-	.
8BB-J	.	.	.
8E-L	.	4g-	.
8d-J	.	.	.
!!LO:LB:g=original
=7	=7	=7	=7
8BB-L	4c- 4e-	8g-L	.
8c-	.	8a-J	.
8AA-	2e- 2g-	4.dd-	.
8E-	.	.	.
8A-	.	.	.
[8E-J	.	8cc-	.
=8	=8	=8	=8
4E-] [4c-	4g-	8b-L	.
.	.	8a-	.
2D- 2c-]	2f	8ee-	>
.	.	8ccn	)
.	.	8ee-	)
.	.	8dd-J	]
*	*v	*v	*
=9	=9	=9
8r	2B- 2g- 2b-	pp
8Cn	.	.
8D-L	.	.
8F	.	.
8G-	4B- 4g- 4b-	<
8E-J	.	(
=10	=10	=10
*	*^	*
*	*	*^	*
8AA-L	2.e-\	[2g-	4.dd-	(
8E-	.	.	.	[
8A-	.	.	.	.
8E-	.	.	8cc-X	.
8d-	.	8g-L]	8b-L	.
8c-XJ	.	8a-J	8a-J	.
*	*	*v	*v	*
=11	=11	=11	=11
8c-L	2a-	2ee-	<
8B-	.	.	(
8d-	.	.	(
8F	.	.	(
8c-	4a- 4ee-	4ff	(
8d-J	.	.	[
=12	=12	=12	=12
*	*	*^	*
8c-L	2a-\	4.ee-	2aa-	.
8B-	.	.	.	.
8g-	.	.	.	.
8f	.	8ddn	.	.
8e-	4f\	8cc-L	4a-	.
8dnJ	.	8b-J	.	.
*	*	*v	*v	*
=13	=13	=13	=13
4d-X	2e- 2gn	8b-L	<
.	.	8cc-J	.
8c-L	.	4ee-	.
8B-J	.	.	.
8A-L	4e- 4a-	4cc-	.
8G-XJ	.	.	.
!!LO:LB:g=original
=14	=14	=14	=14
8G-L	4d- 4a-	8a-L	.
8FJ	.	8b-J	.
8E-L	2B- 2g-	4dd-	.
8BB-J	.	.	.
8E-L	.	4g-	.
8d-J	.	.	.
=15	=15	=15	=15
8BB-L	4c- 4e-	8g-L	.
8c-	.	8a-J	.
8AA-	2e- 2g-	4.dd-	.
8E-	.	.	.
8c-	.	.	.
8E-J	.	8cc-	.
=16	=16	=16	=16
8AA-L	4dn	8fL	.
8BB-	.	8g-J	.
8GG-	4d 4f	2b-	.
8BB-	.	.	.
8B-	4e-	.	.
8BB-J	.	.	.
=17	=17	=17	=17
8FFL	4dn 4a-	8ccnL	<
8BB-	.	8ddnJ	.
8EE-	[4g-	4b- 4ee-	.
8BB-	.	.	.
*	*v	*v	*
8B-	4g-] 4an 4cc	.
8BB-J	.	.
=18	=18	=18
8BBB-L	2.dn 2.b- 2.ddn 2.ff	f
8BB-	.	.
8F	.	.
8dnJ	.	.
4b-	.	.
=19	=19	=19
*	*^	*
4Gn	[4f-X [4b-	8ccnL	p
.	.	8dd-J	.
8A-L	4f-] 4b-]	4ff-X	.
8GJ	.	.	.
*	*v	*v	*
8A-L	4e- 4cc-X 4ee-	.
8G-XJ	.	.
=20	=20	=20
8FL	8dnL 8a- 8b-	.
8F-XJ	8d-XJ 8gn 8cc-	.
8E-L	2c- 2a-	.
8Dn	.	.
8F-	.	.
8E-J	.	.
!!LO:LB:g=original
=21	=21	=21
*	*^	*
4Dn	[4c- [4f	8gnL	<
.	.	8a-J	(
8E-L	4c-] 4f]	4cc-	[ >
8D	.	.	)
8E-	4g-	4g-X	)
8c-J	.	.	]
=22	=22	=22	=22
4Dn	[4c- [4f	8gnL	<
.	.	8a-J	(
8E-L	4c-] 4f]	4cc-	[ >
8DJ	.	.	)
*	*v	*v	*
8E-L	4B- 4g-X 4b-	)
8D-XJ	.	]
=23	=23	=23
*^	*^	*
4ryy	4Cn	4An 4e-	8fL	<
.	.	.	8g-J	(
*	*	*v	*v	*
8d-L	2d-	2B- 2g- 2b-	(
8D-	.	.	(
8G-	.	.	(
8D-J	.	.	(
=24	=24	=24	=24
8d-L	2.d-	4r	(
8D-	.	.	[
*	*	*^	*
8A-X	.	2c-X	4g- 4dd-	>
8D-	.	.	.	)
8E-	.	.	4f 4a-	)
8D-J	.	.	.	]
*v	*v	*	*	*
*	*v	*v	*
=25	=25	=25
8GG-L	2B- 2g- 2b-	pp
8Cn	.	.
8D-	.	.
8F	.	.
8G-	4B- 4g- 4b-	<
8E-J	.	(
=26	=26	=26
*	*^	*
*	*	*^	*
8GG-L	2.e-\	[2g-	4.dd-	(
8E-	.	.	.	[
8A-	.	.	.	.
8E-	.	.	8cc-X	.
8d-	.	8g-L]	8b-L	.
8c-XJ	.	8a-J	8a-J	.
*	*	*v	*v	*
*	*v	*v	*
=27	=27	=27
*	*^	*
8c-L	2a-	2ee-	>
8B-	.	.	)
8d-	.	.	)
8D-	.	.	)
8c-	4a- 4dd-	4ff	)
8d-J	.	.	)
!!LO:LB:g=original
=28	=28	=28	=28
8c-L	2.g- 2.dd-	2.gg-	)
8B-	.	.	]
8D-	.	.	.
8GG-	.	.	.
8D-	.	.	.
8B-J	.	.	.
=29	=29	=29	=29
8c-L	2a-	2ee-	.
8B-	.	.	.
8d-	.	.	.
8D-	.	.	.
8c-	4a- 4dd-	4ff	.
8d-J	.	.	.
=30	=30	=30	=30
8c-L	2g- 2dd-	2gg-	.
8B-	.	.	.
8D-	.	.	.
8GG-	.	.	.
8c-	4a- 4dd-	4ff	.
8d-J	.	.	.
=31	=31	=31	=31
8c-L	2.g- 2.dd-	2.gg-	.
8B-	.	.	.
8D-	.	.	.
8GG-	.	.	.
8D-	.	.	.
8B-J	.	.	.
*	*v	*v	*
=32	=32	=32
[2.d-	2.r	.
=33	=33	=33
2.d-_	2.r	.
=34	=34	=34
*^	*	*
4DD- 4D-	2.d-_	4c- 4f 4a-	.
4r	.	4r	.
4r	.	4r	.
=35	=35	=35	=35
2.GG- 2.D-	2.d-]	2.B- 2.g- 2.b-	.
*v	*v	*	*
==	==	==
*-	*-	*-
!!!system-decoration: {(*)}
!!!filter: flipper -a
!!!ENC: Bryan Jacob Bell
!!!END: November 2021 to April 2022
!!!PED: Günter Philipp
!!!PTL: Ausgewählte Klavierwerke (Edition Peters)
